static/img/kroki/e9f41dd490005399a26146f966e2188a.svg

<?xml version="1.0" encoding="us-ascii" standalone="no"?><svg xmlns="http://www.w3.org/2000/svg" xmlns:xlink="http://www.w3.org/1999/xlink" contentStyleType="text/css" height="352px" preserveAspectRatio="none" style="width:294px;height:352px;" version="1.1" viewBox="0 0 294 352" width="294px" zoomAndPan="magnify"><defs/><g><!--class aws_ec2_instance--><g id="elem_aws_ec2_instance"><rect codeLine="22" fill="#3D176E" height="39.7891" id="aws_ec2_instance" rx="2.5" ry="2.5" style="stroke:#000D19;stroke-width:0.5;" width="192" x="49.5" y="306.37"/><ellipse cx="64.5" cy="326.2645" fill="#ADD1B2" rx="11" ry="11" style="stroke:#181818;stroke-width:1.0;"/><path d="M67.4688,331.9052 Q66.8906,332.202 66.25,332.3427 Q65.6094,332.4989 64.9063,332.4989 Q62.4063,332.4989 61.0781,330.8583 Q59.7656,329.202 59.7656,326.077 Q59.7656,322.952 61.0781,321.2958 Q62.4063,319.6395 64.9063,319.6395 Q65.6094,319.6395 66.25,319.7958 Q66.9063,319.952 67.4688,320.2489 L67.4688,322.9677 Q66.8438,322.3895 66.25,322.1239 Q65.6563,321.8427 65.0313,321.8427 Q63.6875,321.8427 63,322.9208 Q62.3125,323.9833 62.3125,326.077 Q62.3125,328.1708 63,329.2489 Q63.6875,330.3114 65.0313,330.3114 Q65.6563,330.3114 66.25,330.0458 Q66.8438,329.7645 67.4688,329.1864 L67.4688,331.9052 Z " fill="#000000"/><text fill="#D9B8FF" font-family="Helvetica" font-size="17" lengthAdjust="spacing" textLength="150" x="83.5" y="332.1498">aws_ec2_instance</text></g><!--class aws_ecs_cluster--><g id="elem_aws_ecs_cluster"><rect codeLine="24" fill="#3D176E" height="39.7891" id="aws_ecs_cluster" rx="2.5" ry="2.5" style="stroke:#000D19;stroke-width:0.5;" width="175" x="58" y="7"/><ellipse cx="73" cy="26.8945" fill="#ADD1B2" rx="11" ry="11" style="stroke:#181818;stroke-width:1.0;"/><path d="M75.9688,32.5352 Q75.3906,32.832 74.75,32.9727 Q74.1094,33.1289 73.4063,33.1289 Q70.9063,33.1289 69.5781,31.4883 Q68.2656,29.832 68.2656,26.707 Q68.2656,23.582 69.5781,21.9258 Q70.9063,20.2695 73.4063,20.2695 Q74.1094,20.2695 74.75,20.4258 Q75.4063,20.582 75.9688,20.8789 L75.9688,23.5977 Q75.3438,23.0195 74.75,22.7539 Q74.1563,22.4727 73.5313,22.4727 Q72.1875,22.4727 71.5,23.5508 Q70.8125,24.6133 70.8125,26.707 Q70.8125,28.8008 71.5,29.8789 Q72.1875,30.9414 73.5313,30.9414 Q74.1563,30.9414 74.75,30.6758 Q75.3438,30.3945 75.9688,29.8164 L75.9688,32.5352 Z " fill="#000000"/><text fill="#D9B8FF" font-family="Helvetica" font-size="17" lengthAdjust="spacing" textLength="133" x="92" y="32.7798">aws_ecs_cluster</text></g><!--class aws_ecs_container_instance--><g id="elem_aws_ecs_container_instance"><rect codeLine="26" fill="#3D176E" height="39.7891" id="aws_ecs_container_instance" rx="2.5" ry="2.5" style="stroke:#000D19;stroke-width:0.5;" width="277" x="7" y="206.58"/><ellipse cx="22" cy="226.4745" fill="#ADD1B2" rx="11" ry="11" style="stroke:#181818;stroke-width:1.0;"/><path d="M24.9688,232.1152 Q24.3906,232.412 23.75,232.5527 Q23.1094,232.7089 22.4063,232.7089 Q19.9063,232.7089 18.5781,231.0683 Q17.2656,229.412 17.2656,226.287 Q17.2656,223.162 18.5781,221.5058 Q19.9063,219.8495 22.4063,219.8495 Q23.1094,219.8495 23.75,220.0058 Q24.4063,220.162 24.9688,220.4589 L24.9688,223.1777 Q24.3438,222.5995 23.75,222.3339 Q23.1563,222.0527 22.5313,222.0527 Q21.1875,222.0527 20.5,223.1308 Q19.8125,224.1933 19.8125,226.287 Q19.8125,228.3808 20.5,229.4589 Q21.1875,230.5214 22.5313,230.5214 Q23.1563,230.5214 23.75,230.2558 Q24.3438,229.9745 24.9688,229.3964 L24.9688,232.1152 Z " fill="#000000"/><text fill="#D9B8FF" font-family="Helvetica" font-size="17" lengthAdjust="spacing" textLength="235" x="41" y="232.3598">aws_ecs_container_instance</text></g><!--class aws_ecs_task--><g id="elem_aws_ecs_task"><rect codeLine="28" fill="#3D176E" height="39.7891" id="aws_ecs_task" rx="2.5" ry="2.5" style="stroke:#000D19;stroke-width:0.5;" width="154" x="133.5" y="106.79"/><ellipse cx="148.5" cy="126.6845" fill="#ADD1B2" rx="11" ry="11" style="stroke:#181818;stroke-width:1.0;"/><path d="M151.4688,132.3252 Q150.8906,132.622 150.25,132.7627 Q149.6094,132.9189 148.9063,132.9189 Q146.4063,132.9189 145.0781,131.2783 Q143.7656,129.622 143.7656,126.497 Q143.7656,123.372 145.0781,121.7158 Q146.4063,120.0595 148.9063,120.0595 Q149.6094,120.0595 150.25,120.2158 Q150.9063,120.372 151.4688,120.6689 L151.4688,123.3877 Q150.8438,122.8095 150.25,122.5439 Q149.6563,122.2627 149.0313,122.2627 Q147.6875,122.2627 147,123.3408 Q146.3125,124.4033 146.3125,126.497 Q146.3125,128.5908 147,129.6689 Q147.6875,130.7314 149.0313,130.7314 Q149.6563,130.7314 150.25,130.4658 Q150.8438,130.1845 151.4688,129.6064 L151.4688,132.3252 Z " fill="#000000"/><text fill="#D9B8FF" font-family="Helvetica" font-size="17" lengthAdjust="spacing" textLength="112" x="167.5" y="132.5698">aws_ecs_task</text></g><!--link aws_ecs_cluster to aws_ecs_container_instance--><g id="link_aws_ecs_cluster_aws_ecs_container_instance"><path codeLine="30" d="M135.93,47.1 C128.71,62.74 119.39,85.61 115.5,106.79 C112.3,124.19 112.3,129.19 115.5,146.58 C118.97,165.45 126.73,185.65 133.5,200.89 " fill="none" id="aws_ecs_cluster-to-aws_ecs_container_instance" style="stroke:#1A83AF;stroke-width:2.0;"/><polygon fill="#1A83AF" points="135.93,205.27,135.8472,195.4215,133.861,200.7182,128.5643,198.7319,135.93,205.27" style="stroke:#1A83AF;stroke-width:2.0;"/></g><!--link aws_ecs_cluster to aws_ecs_task--><g id="link_aws_ecs_cluster_aws_ecs_task"><path codeLine="31" d="M158.34,47.22 C168.76,62.89 183.49,85.05 194.64,101.83 " fill="none" id="aws_ecs_cluster-to-aws_ecs_task" style="stroke:#1A83AF;stroke-width:2.0;"/><polygon fill="#1A83AF" points="197.68,105.41,196.0159,95.7027,194.9065,101.2497,189.3595,100.1403,197.68,105.41" style="stroke:#1A83AF;stroke-width:2.0;"/></g><!--link aws_ecs_container_instance to aws_ec2_instance--><g id="link_aws_ecs_container_instance_aws_ec2_instance"><path codeLine="32" d="M145.5,246.8 C145.5,262.07 145.5,283.5 145.5,300.11 " fill="none" id="aws_ecs_container_instance-to-aws_ec2_instance" style="stroke:#1A83AF;stroke-width:2.0;"/><polygon fill="#1A83AF" points="145.5,304.99,149.5,295.99,145.5,299.99,141.5,295.99,145.5,304.99" style="stroke:#1A83AF;stroke-width:2.0;"/></g><!--link aws_ecs_task to aws_ecs_container_instance--><g id="link_aws_ecs_task_aws_ecs_container_instance"><path codeLine="33" d="M197.66,147.01 C187.24,162.68 172.51,184.84 161.36,201.62 " fill="none" id="aws_ecs_task-to-aws_ecs_container_instance" style="stroke:#1A83AF;stroke-width:2.0;"/><polygon fill="#1A83AF" points="158.32,205.2,166.6405,199.9303,161.0935,201.0397,159.9841,195.4927,158.32,205.2" style="stroke:#1A83AF;stroke-width:2.0;"/></g><!--SRC=[ZP11Jm9138Nl_8f9E9Em40Kk9Yi9qGinuiqOKcOwCDdT6T8M2Hh_kooe6NTXuThtzVMzhfn1XSLQTgh0Oe74BSwSNmD1eLAYi1s7F91gMmksFwYAa-3b8Z250jK3vkyeJaELU5avdNbaLhr8kWUTBIbil3dQ2u7dlOHU8cgS0tCgGcwn4Op2cD5YQ6sLh9gs-oOPt68D2sIGVf1kjskIKHMvUAgnznynSn-ealXfqo1OYraxSQ0QKvP45B9Mz5S_c_49Z75-gMwYsVCn4tcaV_FP2apObhI5dECpB4WOPBV6SQqLZeR63ax2Z-TWNNvEmPRdg7jpvrd0QrIVhQz_4izrlYdjJYdxrk3s5PhM1JWxZAj-dTTsaWxxwUIjSzTWUTrUUQNLaEl4Kgz-uf3robpV]--></g></svg>

<svg xmlns="http://www.w3.org/2000/svg" width="294" height="352" preserveAspectRatio="none" style="width:294px;height:352px"><rect width="192" height="39.789" x="49.5" y="306.37" fill="#3D176E" rx="2.5" ry="2.5" style="stroke:#000d19;stroke-width:.5"/><circle cx="64.5" cy="326.264" r="11" fill="#ADD1B2" style="stroke:#181818;stroke-width:1"/><path d="M67.469 331.905q-.578.297-1.219.438-.64.156-1.344.156-2.5 0-3.828-1.64-1.312-1.657-1.312-4.782t1.312-4.781q1.328-1.656 3.828-1.656.703 0 1.344.156.656.156 1.219.453v2.719q-.625-.579-1.219-.844-.594-.281-1.219-.281-1.344 0-2.031 1.078-.688 1.062-.688 3.156 0 2.094.688 3.172.688 1.062 2.031 1.062.625 0 1.219-.265.594-.281 1.219-.86v2.72Z"/><text x="83.5" y="332.15" fill="#D9B8FF" font-family="Helvetica" font-size="17" textLength="150">aws_ec2_instance</text><rect width="175" height="39.789" x="58" y="7" fill="#3D176E" rx="2.5" ry="2.5" style="stroke:#000d19;stroke-width:.5"/><circle cx="73" cy="26.895" r="11" fill="#ADD1B2" style="stroke:#181818;stroke-width:1"/><path d="M75.969 32.535q-.578.297-1.219.438-.64.156-1.344.156-2.5 0-3.828-1.64-1.312-1.657-1.312-4.782t1.312-4.781q1.328-1.656 3.828-1.656.703 0 1.344.156.656.156 1.219.453v2.719q-.625-.578-1.219-.844-.594-.281-1.219-.281-1.344 0-2.031 1.078-.688 1.062-.688 3.156 0 2.094.688 3.172.688 1.062 2.031 1.062.625 0 1.219-.265.594-.281 1.219-.86v2.72Z"/><text x="92" y="32.78" fill="#D9B8FF" font-family="Helvetica" font-size="17" textLength="133">aws_ecs_cluster</text><rect width="277" height="39.789" x="7" y="206.58" fill="#3D176E" rx="2.5" ry="2.5" style="stroke:#000d19;stroke-width:.5"/><circle cx="22" cy="226.475" r="11" fill="#ADD1B2" style="stroke:#181818;stroke-width:1"/><path d="M24.969 232.115q-.578.297-1.219.438-.64.156-1.344.156-2.5 0-3.828-1.64-1.312-1.657-1.312-4.782t1.312-4.781q1.328-1.656 3.828-1.656.703 0 1.344.156.656.156 1.219.453v2.719q-.625-.578-1.219-.844-.594-.281-1.219-.281-1.343 0-2.031 1.078-.688 1.062-.688 3.156 0 2.094.688 3.172.688 1.062 2.031 1.062.625 0 1.219-.265.594-.281 1.219-.86v2.72Z"/><text x="41" y="232.36" fill="#D9B8FF" font-family="Helvetica" font-size="17" textLength="235">aws_ecs_container_instance</text><rect width="154" height="39.789" x="133.5" y="106.79" fill="#3D176E" rx="2.5" ry="2.5" style="stroke:#000d19;stroke-width:.5"/><circle cx="148.5" cy="126.684" r="11" fill="#ADD1B2" style="stroke:#181818;stroke-width:1"/><path d="M151.469 132.325q-.578.297-1.219.438-.64.156-1.344.156-2.5 0-3.828-1.64-1.312-1.657-1.312-4.782t1.312-4.781q1.328-1.656 3.828-1.656.703 0 1.344.156.656.156 1.219.453v2.719q-.625-.579-1.219-.844-.594-.281-1.219-.281-1.344 0-2.031 1.078-.688 1.062-.688 3.156 0 2.094.688 3.172.688 1.062 2.031 1.062.625 0 1.219-.265.594-.281 1.219-.86v2.72Z"/><text x="167.5" y="132.57" fill="#D9B8FF" font-family="Helvetica" font-size="17" textLength="112">aws_ecs_task</text><path fill="none" d="M135.93 47.1c-7.22 15.64-16.54 38.51-20.43 59.69-3.2 17.4-3.2 22.4 0 39.79 3.47 18.87 11.23 39.07 18 54.31" style="stroke:#1a83af;stroke-width:2"/><path fill="#1A83AF" d="m135.93 205.27-.083-9.849-1.986 5.297-5.297-1.986 7.366 6.538z" style="stroke:#1a83af;stroke-width:2"/><path fill="none" d="M158.34 47.22c10.42 15.67 25.15 37.83 36.3 54.61" style="stroke:#1a83af;stroke-width:2"/><path fill="#1A83AF" d="m197.68 105.41-1.664-9.707-1.11 5.547-5.547-1.11 8.321 5.27z" style="stroke:#1a83af;stroke-width:2"/><path fill="none" d="M145.5 246.8v53.31" style="stroke:#1a83af;stroke-width:2"/><path fill="#1A83AF" d="m145.5 304.99 4-9-4 4-4-4 4 9z" style="stroke:#1a83af;stroke-width:2"/><path fill="none" d="M197.66 147.01c-10.42 15.67-25.15 37.83-36.3 54.61" style="stroke:#1a83af;stroke-width:2"/><path fill="#1A83AF" d="m158.32 205.2 8.32-5.27-5.546 1.11-1.11-5.547-1.664 9.707z" style="stroke:#1a83af;stroke-width:2"/></svg>
